X:144
T:Mrs MaCloud of Rasee. JGi.144
M:C|
L:1/8
Q:1/2=80
S:Joshua Gibbons MS,1823,Tealby,Lincs.
N:Key signature is shown as C in MS, but Bb major would seem
N:more likely.
R:reel
O:Tealby,Lincolnshire
Z:VMP/R.Greig, 2009
K:Bb
B2b2{a}g>fg>b|d2d>cd2d>c|B2b2{a}g>fg>b|c2c>dc2c>d|
B2b2{a}g>fg>b|d2d>cd2d>f|g>fg>b|g>fg>a b>cb>e|c2c>dc2:|
|:d2|B2d>ef2d2|d>cd>e d2 d>c|B2d>ef2d2|c2c>dc3d|
c2d>ef2d2|d>cd>fd3f|g>fg>a b>ab>d|c2c>dc2:|

